X:1
T:Title
%%score { ( 1 3 ) | ( 2 4 ) }
L:1/8
Q:1/4=90
M:6/8
K:Ab
V:1 treble nm="Grand Piano"
V:3 treble 
V:2 bass 
V:4 bass 
V:1
 [Ec]2 [DG] [EA]2 B | c2 [EA] [DF] [CE]2 | [DF]2 [DG] [CA]2 [Ec] | d2 c B3 | [Ec]2 [DG] [EA]2 B | %5
w: Robert~Harkness * * *|||||
 c2 [EA] F E2 | A2 G A2 B | c2 B A3 | c2- [Ac-] [Gc-] [Fc-]2 | [Ec]2 d d c2 | B6- | B2 z z3 | %12
w: |||||||
 [CA] [CA]2 B2 c | [Fd]2 [=Ed] c3 | E2 c c B2 | [CA]6 |] %16
w: ||||
V:2
 [A,,A,]2 [B,,E,] [C,A,]2 [E,G,E] | [A,E]2 [C,A,] [D,A,] [A,,A,]2 | %2
 [D,A,]2 [B,,E,] [A,,E,]2 [A,,A,] | [A,F]2 [A,E][K:bass] [E,G,E]3 | %4
 [A,,A,]2 [B,,E,] [C,A,]2 [E,E] | [A,E]2 [C,A,] [D,A,D] [A,C]2 | [E,CE]2 [E,B,E] [E,CE]2 [E,G,E] | %7
 [E,A,E]2 [E,DE] [A,CE]3 | E,2 A, G, F,2 | A,2[K:treble] [A,F] [A,F][K:bass] [A,E]2 | %10
 [G,E]2 B, A, G,2 | G,2 [E,A,E] [E,A,E] [E,G,D]2 | [A,,A,] [A,,A,]2 [A,D]2 [A,E] | %13
 [D,A,]2 [D,A,] [A,E]3 | [A,C]2 [A,E] [E,G,E] [E,G,D]2 | [A,,A,]6 |] %16
V:3
 x6 | x6 | x6 | x6 | x6 | x6 | x6 | x6 | .E3 z3 | x6 | z2 G F E2 | E2 c c B2 | x6 | x6 | x6 | x6 |] %16
V:4
 x6 | x6 | x6 | x3[K:bass] x3 | x6 | x6 | x6 | x6 | A,,6- | A,,2[K:treble] z z3[K:bass] | E,6- | %11
 E,2 z z3 | x6 | x6 | x6 | x6 |] %16

